app/assets/images/heroicons/solid/numbered-list.svg

<svg width="24" height="24" viewBox="0 0 24 24" fill="none" xmlns="http://www.w3.org/2000/svg">
<path fill-rule="evenodd" clip-rule="evenodd" d="M7.49136 5.99183C7.49136 5.57759 7.82715 5.24179 8.24138 5.24179H20.2411C20.6554 5.24179 20.9912 5.57759 20.9912 5.99183C20.9912 6.40606 20.6554 6.74187 20.2411 6.74187H8.24138C7.82715 6.74187 7.49136 6.40606 7.49136 5.99183Z" fill="black"/>
<path fill-rule="evenodd" clip-rule="evenodd" d="M7.49069 11.9946C7.49069 11.5803 7.82649 11.2445 8.24071 11.2445H20.2405C20.6547 11.2445 20.9905 11.5803 20.9905 11.9946C20.9905 12.4088 20.6547 12.7446 20.2405 12.7446H8.24071C7.82649 12.7446 7.49069 12.4088 7.49069 11.9946Z" fill="black"/>
<path fill-rule="evenodd" clip-rule="evenodd" d="M7.49136 17.9936C7.49136 17.5794 7.82715 17.2436 8.24138 17.2436H20.2411C20.6554 17.2436 20.9912 17.5794 20.9912 17.9936C20.9912 18.4078 20.6554 18.7436 20.2411 18.7436H8.24138C7.82715 18.7436 7.49136 18.4078 7.49136 17.9936Z" fill="black"/>
<path fill-rule="evenodd" clip-rule="evenodd" d="M2.24023 3.74516C2.24023 3.33092 2.57603 2.99512 2.99025 2.99512H4.11523C4.52945 2.99512 4.86525 3.33092 4.86525 3.74516V6.74548H5.24021C5.65443 6.74548 5.99023 7.08128 5.99023 7.49552C5.99023 7.90975 5.65443 8.24556 5.24021 8.24556H2.99025C2.57603 8.24556 2.24023 7.90975 2.24023 7.49552C2.24023 7.08128 2.57603 6.74548 2.99025 6.74548H3.36521V4.4952H2.99025C2.57603 4.4952 2.24023 4.15939 2.24023 3.74516Z" fill="black"/>
<path fill-rule="evenodd" clip-rule="evenodd" d="M2.79049 10.6019C2.4976 10.309 2.4976 9.83411 2.79049 9.54118C3.5227 8.80888 4.70987 8.80888 5.44208 9.54118C6.1743 10.2735 6.1743 11.4608 5.44208 12.1931L4.89284 12.7424L5.24142 12.7424C5.65562 12.7425 5.99137 13.0783 5.99133 13.4926C5.9913 13.9068 5.65548 14.2426 5.24128 14.2426L3.08231 14.2424C2.77898 14.2424 2.50554 14.0596 2.38947 13.7793C2.2734 13.499 2.33757 13.1764 2.55206 12.9619L4.38144 11.1323C4.52789 10.9859 4.52789 10.7484 4.38144 10.6019C4.235 10.4555 3.99757 10.4555 3.85113 10.6019C3.55824 10.8949 3.08337 10.8949 2.79049 10.6019Z" fill="black"/>
<path fill-rule="evenodd" clip-rule="evenodd" d="M2.24023 15.7447C2.24023 15.3304 2.57603 14.9946 2.99025 14.9946H4.11513C5.15072 14.9946 5.99023 15.8342 5.99023 16.8698C5.99023 17.2915 5.85103 17.6807 5.61609 17.9939C5.85103 18.3071 5.99023 18.6963 5.99023 19.118C5.99023 20.1536 5.15072 20.9931 4.11513 20.9931H2.99025C2.57603 20.9931 2.24023 20.6573 2.24023 20.2431C2.24023 19.8288 2.57603 19.493 2.99025 19.493H4.11513C4.32227 19.493 4.49019 19.3251 4.49019 19.118C4.49019 18.9229 4.3413 18.7626 4.15098 18.7446C4.13906 18.7448 4.12711 18.7449 4.11513 18.7449H3.74024C3.32601 18.7449 2.99022 18.4091 2.99022 17.9949L2.99022 17.9939L2.99022 17.9929C2.99022 17.5786 3.32601 17.2428 3.74024 17.2428H4.11513C4.12711 17.2428 4.13906 17.2429 4.15098 17.2432C4.3413 17.2251 4.49019 17.0648 4.49019 16.8698C4.49019 16.6626 4.32227 16.4947 4.11513 16.4947H2.99025C2.57603 16.4947 2.24023 16.1589 2.24023 15.7447Z" fill="black"/>
</svg>

<svg xmlns="http://www.w3.org/2000/svg" viewBox="0 0 24 24" fill="currentColor" aria-hidden="true" data-slot="icon">
  <path fill-rule="evenodd" d="M7.491 5.992a.75.75 0 0 1 .75-.75h12a.75.75 0 1 1 0 1.5h-12a.75.75 0 0 1-.75-.75ZM7.49 11.995a.75.75 0 0 1 .75-.75h12a.75.75 0 0 1 0 1.5h-12a.75.75 0 0 1-.75-.75ZM7.491 17.994a.75.75 0 0 1 .75-.75h12a.75.75 0 1 1 0 1.5h-12a.75.75 0 0 1-.75-.75ZM2.24 3.745a.75.75 0 0 1 .75-.75h1.125a.75.75 0 0 1 .75.75v3h.375a.75.75 0 0 1 0 1.5H2.99a.75.75 0 0 1 0-1.5h.375v-2.25H2.99a.75.75 0 0 1-.75-.75ZM2.79 10.602a.75.75 0 0 1 0-1.06 1.875 1.875 0 1 1 2.652 2.651l-.55.55h.35a.75.75 0 0 1 0 1.5h-2.16a.75.75 0 0 1-.53-1.281l1.83-1.83a.375.375 0 0 0-.53-.53.75.75 0 0 1-1.062 0ZM2.24 15.745a.75.75 0 0 1 .75-.75h1.125a1.875 1.875 0 0 1 1.501 2.999 1.875 1.875 0 0 1-1.501 3H2.99a.75.75 0 0 1 0-1.501h1.125a.375.375 0 0 0 .036-.748H3.74a.75.75 0 0 1-.75-.75v-.002a.75.75 0 0 1 .75-.75h.411a.375.375 0 0 0-.036-.748H2.99a.75.75 0 0 1-.75-.75Z" clip-rule="evenodd"/>
</svg>
